X:1
T:[ID 3-11b]
T:[ID 3-11b]
T:Bezeichnung standardisiert: Polonaise Polonoise
T:Urheber unbekannt Datum in der hier transkribierten schriftlichen Quelle: 1767
C:Urheber unbekannt
C:Datum in der hier transkribierten schriftlichen Quelle: 1767
L:1/8
M:3/4
K:D
V:1 treble 
V:1
 AG/F/ G2 e2 |{d} cB/A/ dAFD | AG/F/ G2 e2 |{d} cB/c/ d2 D2 :: A/B/c/d/ e2 a2 | (ag)(gf)(fe) | %6
 A/B/c/d/ e2 a2 | (ag)(gf)(fe) | AG/F/ G2 e2 |{d} cB/A/ dAFD | AG/F/ G2 e2 |{d} cB/c/ d2 D2 :| %12

